images/dog-logo-light.svg

<svg width="31" height="41" viewBox="0 0 31 41" fill="none" xmlns="http://www.w3.org/2000/svg">
<path fill-rule="evenodd" clip-rule="evenodd" d="M12.998 40.9355V31.9382C12.998 31.2123 12.3388 30.6538 11.6163 30.7238C8.33637 31.0412 0.37917 31.0378 0.723475 23.4626C2.6208 22.6326 6.46569 21.0235 7.78012 20.4745C8.06203 20.3568 8.25908 20.1004 8.30228 19.798L8.59537 17.7464C8.64034 17.4316 8.81031 17.1511 9.07777 16.9792C10.3518 16.1603 14.3731 13.7875 18.1966 13.7875C18.9187 11.1883 19.7851 6.71172 18.9187 0.935547C22.5972 4.24621 25.3387 13.6998 26.0822 16.4771C26.2161 16.9769 26.1403 17.5037 25.8835 17.953L25.2889 18.9935C24.8175 19.8186 24.7055 20.801 24.9791 21.711L30.76 40.9355H12.998ZM16.3194 12.6323C15.5974 10.1774 15.1642 4.54566 15.1642 0.935547C13.4313 2.52399 11.6984 10.6106 11.9872 12.9211C13.4313 12.6323 14.8754 12.6323 16.3194 12.6323Z" fill="#1CAA89"/>
</svg>

<?xml version="1.0" encoding="UTF-8"?>
<svg width="31" height="41" fill="none" version="1.1" viewBox="0 0 31 41" xmlns="http://www.w3.org/2000/svg" xmlns:cc="http://creativecommons.org/ns#" xmlns:dc="http://purl.org/dc/elements/1.1/" xmlns:rdf="http://www.w3.org/1999/02/22-rdf-syntax-ns#">
 <metadata>
  <rdf:RDF>
   <cc:Work rdf:about="">
    <dc:format>image/svg+xml</dc:format>
    <dc:type rdf:resource="http://purl.org/dc/dcmitype/StillImage"/>
    <dc:title/>
   </cc:Work>
  </rdf:RDF>
 </metadata>
 <path d="m13 40.94v-8.997c0-0.7259-0.6592-1.284-1.382-1.214-3.28 0.3174-11.24 0.314-10.89-7.261 1.897-0.83 5.742-2.439 7.057-2.988 0.2819-0.1177 0.479-0.3741 0.5222-0.6765l0.2931-2.052c0.04497-0.3148 0.2149-0.5953 0.4824-0.7672 1.274-0.8189 5.295-3.192 9.119-3.192 0.7221-2.599 1.588-7.076 0.7221-12.85 3.678 3.311 6.42 12.76 7.164 15.54 0.1339 0.4998 0.0581 1.027-0.1987 1.476l-0.5946 1.04c-0.4714 0.8251-0.5834 1.808-0.3098 2.718l5.781 19.22zm3.34-27.96c-0.722-2.455-1.174-8.425-1.174-12.04-1.733 1.588-3.221 10.98-2.932 13.29 1.643-0.4915 2.157-0.8382 4.106-1.253z" clip-rule="evenodd" fill="#1caa89" fill-rule="evenodd"/>
</svg>
